X:1
T:Bill Sullivan's  "Arranged by Ben Holmes"
M:C|
L:1/8
Q:80
C:Traditional
S:Polka
K:HP
|: a2{g}a3/2f/2 | \
{g}ec{ag}a3/2f/2 | \
{g}ec{ag}a3/2f/2 |
{g}ec{g}B{G}A | \
a2{g}a3/2f/2 | \
{g}ec{ag}a2 |
ce{g}B3/2d/2|1
{g}B{G}A{GAG}A2 :| | \
|2 {g}B{G}A{GAG}A|] |:
B | \
{g}ce{A}ec | \
{g}df{e}fd | \
{g}ce{A}e3/2c/2 |
{g}dB{G}B3/2d/2 | \
{g}ce{A}ec | \
{g}df{e}fd |
{g}ce{g}B3/2c/2 | \
{g}B{G}A{GAG}A :|
